src/assets/images/icons/github-small.svg

<svg width="16" height="16" viewBox="0 0 16 16" fill="none" xmlns="http://www.w3.org/2000/svg">
<path fill-rule="evenodd" clip-rule="evenodd" d="M8 0.200012C3.6 0.200012 0 3.80001 0 8.20001C0 11.7333 2.26667 14.7333 5.46667 15.8C5.86667 15.8667 6 15.6 6 15.4C6 15.2 6 14.7333 6 14.0667C3.8 14.5333 3.33333 13 3.33333 13C3 12.0667 2.46667 11.8 2.46667 11.8C1.66667 11.3333 2.46667 11.3333 2.46667 11.3333C3.26667 11.4 3.66667 12.1333 3.66667 12.1333C4.4 13.3333 5.53333 13 6 12.8C6.06667 12.2667 6.26667 11.9333 6.53333 11.7333C4.73333 11.5333 2.86667 10.8667 2.86667 7.80001C2.86667 6.93335 3.2 6.20001 3.66667 5.66668C3.66667 5.40001 3.33333 4.60001 3.8 3.53335C3.8 3.53335 4.46667 3.33335 6 4.33335C6.66667 4.13335 7.33333 4.06668 8 4.06668C8.66667 4.06668 9.33333 4.13335 10 4.33335C11.5333 3.26668 12.2 3.53335 12.2 3.53335C12.6667 4.66668 12.3333 5.46668 12.2667 5.66668C12.8 6.20001 13.0667 6.93335 13.0667 7.80001C13.0667 10.8667 11.2 11.5333 9.4 11.7333C9.66667 12 9.93333 12.4667 9.93333 13.2C9.93333 14.2667 9.93333 15.1333 9.93333 15.4C9.93333 15.6 10.0667 15.8667 10.4667 15.8C13.6667 14.7333 15.9333 11.7333 15.9333 8.20001C16 3.80001 12.4 0.200012 8 0.200012Z" fill="#98A2B3"/>
</svg>

<svg width="16" height="16" fill="none" xmlns="http://www.w3.org/2000/svg"><path fill-rule="evenodd" clip-rule="evenodd" d="M8 .2c-4.4 0-8 3.6-8 8a7.991 7.991 0 0 0 5.467 7.6c.4.067.533-.2.533-.4v-1.333C3.8 14.533 3.333 13 3.333 13c-.333-.933-.866-1.2-.866-1.2-.8-.467 0-.467 0-.467.8.067 1.2.8 1.2.8C4.4 13.333 5.533 13 6 12.8c.067-.533.267-.867.533-1.067-1.8-.2-3.666-.866-3.666-3.933 0-.867.333-1.6.8-2.133 0-.267-.334-1.067.133-2.134 0 0 .667-.2 2.2.8.667-.2 1.333-.266 2-.266s1.333.066 2 .266c1.533-1.066 2.2-.8 2.2-.8.467 1.134.133 1.934.067 2.134.533.533.8 1.266.8 2.133 0 3.067-1.867 3.733-3.667 3.933.267.267.533.734.533 1.467v2.2c0 .2.134.467.534.4a7.991 7.991 0 0 0 5.466-7.6C16 3.8 12.4.2 8 .2Z" fill="#98A2B3"/></svg>
